!!!!SEGMENT: pl-cz--iii-357--011_kozllowski-jozef--requiem-quia-pius-es.krn
!!!cenid: 18xx:921
!!!COM: Kozłowski, Józef
!!!COM-rismid: pe30003850
!!!CDT: 1757-1831
!!!CNT: Polish
!!!OPR: Requiem
!!!OTL: Quia pius es
!!!OMV: 011
!!!PDT: 1843
!!!AGN: Sacred; Requiem
!!!SMS-siglum: PL-CZ
!!!SMS-shelfmark: III-357
!!!SMS-shelfwork: 001-011 M
!!!SMS-variant:
!!!SMS-altvar:
!!!NIFC-rismid: 300000625
!!!URL-scan: http://repozytorium.nifc.pl/skany/pl-cz-nut--iii-357
!!!ONB-nifc: UWAGA: części Requiem: Requiem, Dies irae, Tuba mirrum, Judex ergo, Confutatis, Lacrimosa, Offertorio, Sanctus, O rex intende hostias, Agnus Dei, Quia pius es, Requiem, Salve Regina
!!!AIN: 1 alto 2 bass 3 cello 2 clarb 2 cor 2 fagot 2 flt 2 oboe 1 piano 2 soprn 1 tenor 1 timpa 1 troma 1 tromb 2 tromp 1 tromt 2 viola 2 violn
!!!key: E-
**kern	**kern	**kern	**kern	**kern	**kern	**kern	**kern	**kern	**text	**dynam	**kern	**text	**dynam	**kern	**text	**dynam	**kern	**kern	**text	**dynam	**kern	**kern	**dynam	**kern	**kern	**kern	**kern	**kern	**kern	**kern	**kern	**kern	**kern	**kern	**kern	**kern	**kern	**kern	**kern
*part30	*part29	*part28	*part27	*part26	*part25	*part24	*part23	*part22	*part22	*part22	*part21	*part21	*part21	*part20	*part20	*part20	*part19	*part18	*part18	*part18	*part17	*part17	*part17	*part16	*part15	*part14	*part13	*part12	*part11	*part10	*part9	*part8	*part7	*part6	*part5	*part4	*part3	*part2	*part1
*staff31	*staff30	*staff29	*staff28	*staff27	*staff26	*staff25	*staff24	*staff23	*staff23	*	*staff22	*staff22	*	*staff21	*staff21	*	*staff20	*staff19	*staff19	*	*staff18	*staff17	*	*staff16	*staff15	*staff14	*staff13	*staff12	*staff11	*staff10	*staff9	*staff8	*staff7	*staff6	*staff5	*staff4	*staff3	*staff2	*staff1
*Icello	*Icello	*Icello	*Iviola	*Iviola	*Ivioln	*Ivioln	*Ibass	*Ibass	*	*	*Itenor	*	*	*Ialto	*	*	*Isoprn	*Isoprn	*	*	*Ipiano	*Ipiano	*	*Itimpa	*Itromb	*Itromt	*Itroma	*Itromp	*Itromp	*Icor	*Icor	*Ifagot	*Ifagot	*Iclarb	*Iclarb	*Ioboe	*Ioboe	*Iflt	*Iflt
*Icbass	*	*	*	*	*	*	*	*	*	*	*	*	*	*	*	*	*	*	*	*	*	*	*	*Itambn	*	*	*	*	*	*	*	*	*	*	*	*	*	*	*
*ICstr	*ICstr	*ICstr	*ICstr	*ICstr	*ICstr	*ICstr	*ICvox	*ICvox	*	*	*ICvox	*	*	*ICvox	*	*	*ICvox	*ICvox	*	*	*ICklav	*ICklav	*	*ICidio	*ICbras	*ICbras	*ICbras	*ICbras	*ICbras	*ICbras	*ICbras	*ICww	*ICww	*ICww	*ICww	*ICww	*ICww	*ICww	*ICww
*I"Baſso et Violoncello.	*I"Violoncello IIdo Solo	*I"Violoncello Imo Solo.	*I"Viola IIdo	*I"Alto Viola.	*I"Violino IIdo	*I"Violino Imo	*I"Baſso Coro.	*I"Baſso.	*	*	*I"Tenore.	*	*	*I"Alto.	*	*	*I"Canto IIdo Solo.	*I"Canto.	*	*	*I"Forte=Piano.	*I"Forte=Piano.	*	*I"Tympano. e Tambour.	*I"Tromboni Baſso.	*I"Trombone Tenore.	*I"Trombone Alto.	*I"Trombe IIdo in Es.	*I"Trombe Imo in Es.	*I"Corno IIdo in Es	*I"Corno Imo in Es.	*I"Fagotto IIdo	*I"Fagotto Imo	*I"Clarinetto 2do in B.	*I"Clarinetto Imo in B.	*I"Oboe IIdo	*I"Oboe Imo	*I"Flauto IIdo	*I"Flauto. Imo
*I'vlc	*I'vlc 2 solo	*I'vlc 1 solo	*I'vla 2	*I'a-vla	*I'vl 2	*I'vl 1	*I'Coro B	*I'B	*	*	*I'T	*	*	*I'A	*	*	*I'S 2	*I'S	*	*	*I'pf	*	*	*I'timp	*I'b-trb	*I't-trb	*I'a-trb	*I'tr 2 in E♭	*I'tr 1 in E♭	*I'cor 2 in E♭	*I'cor 1 in E♭	*I'fag 2	*I'fag 1	*I'cl 2	*I'cl 1	*I'ob 2	*I'ob 1	*I'fl 2	*I'fl 1
*clefF4	*clefF4	*clefF4	*clefC3	*clefC3	*clefG2	*clefG2	*clefF4	*clefF4	*	*	*clefC4	*	*	*clefC3	*	*	*clefC1	*clefC1	*	*	*clefF4	*clefG2	*	*clefF4	*clefF4	*clefC3	*clefC3	*clefG2	*clefG2	*clefG2	*clefG2	*clefF4	*clefF4	*clefG2	*clefG2	*clefG2	*clefG2	*clefG2	*clefG2
*	*	*	*	*	*	*	*	*	*	*	*	*	*	*	*	*	*	*	*	*	*	*	*	*	*	*	*	*ITrd-2c-3	*ITrd-2c-3	*ITrd1c2	*ITrd1c2	*	*	*ITrd1c2	*ITrd1c2	*	*	*	*
*k[b-e-a-]	*k[b-e-a-]	*k[b-e-a-]	*k[b-e-a-]	*k[b-e-a-]	*k[b-e-a-]	*k[b-e-a-]	*k[b-e-a-]	*k[b-e-a-]	*	*	*k[b-e-a-]	*	*	*k[]	*	*	*k[b-e-a-]	*k[b-e-a-]	*	*	*k[b-e-a-]	*k[b-e-a-]	*	*k[b-e-a-]	*k[b-e-a-]	*k[b-e-a-]	*k[b-e-a-]	*k[b-e-a-]	*k[b-e-a-]	*k[b-e-]	*k[b-e-a-]	*k[b-e-a-]	*k[b-e-a-]	*k[b-e-a-]	*k[b-e-a-]	*k[b-e-a-]	*k[b-e-a-]	*k[b-e-a-]	*k[b-e-a-]
*E-:	*E-:	*E-:	*E-:	*E-:	*E-:	*E-:	*E-:	*E-:	*	*	*E-:	*	*	*E-:	*	*	*E-:	*E-:	*	*	*E-:	*E-:	*	*E-:	*E-:	*E-:	*E-:	*E-:	*E-:	*E-:	*E-:	*E-:	*E-:	*E-:	*E-:	*E-:	*E-:	*E-:	*E-:
*M4/4	*M4/4	*M4/4	*M4/4	*M4/4	*M4/4	*M4/4	*M4/4	*M4/4	*	*	*M4/4	*	*	*M4/4	*	*	*M4/4	*M4/4	*	*	*M4/4	*M4/4	*	*M4/4	*M4/4	*M4/4	*M4/4	*M4/4	*M4/4	*M4/4	*M4/4	*M4/4	*M4/4	*M4/4	*M4/4	*M4/4	*M4/4	*M4/4	*M4/4
*met(c)	*met(c)	*met(c)	*met(c)	*met(c)	*met(c)	*met(c)	*met(c)	*met(c)	*	*	*met(c)	*	*	*met(c)	*	*	*met(c)	*met(c)	*	*	*met(c)	*met(c)	*	*met(c)	*met(c)	*met(c)	*met(c)	*met(c)	*met(c)	*met(c)	*met(c)	*met(c)	*met(c)	*met(c)	*met(c)	*met(c)	*met(c)	*met(c)	*met(c)
=1	=1	=1	=1	=1	=1	=1	=1	=1	=1	=1	=1	=1	=1	=1	=1	=1	=1	=1	=1	=1	=1	=1	=1	=1	=1	=1	=1	=1	=1	=1	=1	=1	=1	=1	=1	=1	=1	=1	=1
*	*	*	*	*	*	*	*	*2\right	*	*	*	*	*	*	*	*	*	*	*	*	*2\right	*	*	*	*	*	*	*	*	*	*	*	*	*	*	*	*	*	*
!	!	!	!	!	!	!	!	!	!	!	!	!	!	!LO:TX:b:t=2.	!	!	!	!	!	!	!	!	!	!	!	!	!	!	!	!	!	!LO:TX:t=P:problem=kolejność bemoli&colon;BB-, E-, A-	!LO:TX:t=P:problem=kolejność bemoli&colon;BB-, E-, A-	!	!	!	!	!	!
!	!	!	!	!LO:TX:b:t=5.	!	!LO:TX:a:i:t=adagio	!	!LO:TX:a:i:t=tutti	!	!	!	!	!	!LO:TX:a:i:t=Adagio	!	!	!	!LO:TX:a:t=2.	!	!	!	!	!	!	!	!	!	!LO:TX:a:i:t=Adagio	!LO:TX:a:i:t=Adagio	!LO:TX:a:i:t=Adagio	!LO:TX:a:i:t=adagio	!LO:TX:a:i:t=Adagio	!LO:TX:a:i:t=adagio	!	!	!LO:TX:a:i:t=Adagio	!LO:TX:a:i:t=Adagio	!	!
!	!	!	!	!LO:TX:t=P:problem=brak klucza (zapisane jedynie pauzy wielotaktowe)	!LO:TX:b:t=5.	!LO:TX:b:t=5.	!	!LO:TX:a:i:t=Adagio	!	!	!LO:TX:a:i:t=Quia pius es	!	!	!LO:TX:a:i:t=Quia pius es	!	!	!	!LO:TX:a:i:t=Quia pius est	!	!	!	!	!	!	!	!	!	!LO:TX:b:t=5.	!LO:TX:b:t=5	!LO:TX:b:t=5	!LO:TX:b:t=5.	!LO:TX:b:t=5	!LO:TX:b:t=5	!	!	!LO:TX:b:t=5	!LO:TX:b:t=5	!	!
!LO:TX:a:i:t=Quia pius es Tacet.	!LO:TX:t=P:problem=instrument gra jedynie w części "Judex ergo", pozostałe części nieoznaczone	!LO:TX:t=P:problem=instrument gra jedynie w części "Judex ergo", pozostałe części nieoznaczone	!LO:TX:t=P:problem=instrument gra jedynie w części "Lachrimosa", pozostałe części nieoznaczone	!LO:TX:a:i:t=Quia pius Tacet.	!LO:TX:a:i:t=Quia pius es. Tacet Choral	!LO:TX:a:i:t=Quia pius	!LO:TX:t=P:problem=śpiewa jedynie w części "Confutatis", pozostałe części nieoznaczone	!LO:TX:a:i:t=Quia Pius	!	!	!LO:TX:a:i:t=Adagio	!	!	!LO:TX:t=P:problem=bemole niezapisane	!	!	!LO:TX:t=P:problem=śpiewa jedynie w części "Judex ergo", pozostałe części nieoznaczone	!LO:TX:a:i:t=Adagio	!	!	!	!	!	!LO:TX:a:i:t=Quia pius et Salve Regina Tacet.	!LO:TX:a:i:t=Pius es Tacet.	!LO:TX:a:i:t=Quia pius Tacet.	!LO:TX:a:i:t=Quia pius Tacet.	!LO:TX:a:i:t=Quia pius	!LO:TX:a:i:t=Quia pius	!LO:TX:a:i:t=Quia pius in Es	!LO:TX:a:i:t=Quia pius	!LO:TX:a:i:t=Quia pius	!LO:TX:a:i:t=Quia pius	!LO:TX:a:i:t=Quia pius Tacet.	!LO:TX:a:i:t=Quia pius Tacet.	!LO:TX:a:i:t=Quia pius	!LO:TX:a:i:t=Quia pius	!LO:TX:a:i:t=Quia pius es Tacet.	!LO:TX:a:i:t=Quia pius es Tacet.
!	!	!	!	!	!	!	!	!	!	!	!	!	!	!	!	!	!	!	!	!	!LO:TX:i:a:t=adagio	!	!	!	!	!	!	!	!	!	!	!	!	!	!	!	!	!	!
!	!	!	!	!	!	!	!	!	!	!LO:DY:b:rj	!	!	!	!	!	!	!	!	!	!	!LO:TX:a:i:t=Organo.	!	!	!	!	!	!	!	!	!	!	!	!	!	!	!	!	!	!
!	!	!	!	!	!	!	!	!	!	!	!	!	!	!	!	!	!	!	!	!	!LO:TX:a:i:t=Quia pius es	!	!LO:DY:b=2:rj	!	!	!	!	!	!	!	!	!	!	!	!	!	!	!	!
1ryy	1ryy	1ryy	1ryy	00r	00r	00r	1ryy	2E-\	Qui-	p	1r	.	.	0r	.	.	1ryy	0r	.	.	2E-\	1ryy	p	1ryy	1ryy	1ryy	1ryy	00r	00r	00r	00r	00r	00r	1ryy	1ryy	00r	00r	1ryy	1ryy
.	.	.	.	.	.	.	.	2E-\	-a	.	.	.	.	.	.	.	.	.	.	.	2E-\	.	.	.	.	.	.	.	.	.	.	.	.	.	.	.	.	.	.
=2	=2	=2	=2	=2	=2	=2	=2	=2	=2	=2	=2	=2	=2	=2	=2	=2	=2	=2	=2	=2	=2	=2	=2	=2	=2	=2	=2	=2	=2	=2	=2	=2	=2	=2	=2	=2	=2	=2	=2
*	*	*	*	*	*	*	*	*	*ij	*	*	*	*	*	*	*	*	*	*	*	*	*	*	*	*	*	*	*	*	*	*	*	*	*	*	*	*	*	*
!	!	!	!	!	!	!	!	!	!	!	!LO:TX:a:i:t=tutti	!	!	!	!	!	!	!	!	!	!	!	!	!	!	!	!	!	!	!	!	!	!	!	!	!	!	!	!
!	!	!	!	!	!	!	!	!	!	!	!	!	!LO:DY:b:rj	!	!	!	!	!	!	!	!	!	!	!	!	!	!	!	!	!	!	!	!	!	!	!	!	!	!
1ryy	1ryy	1ryy	1ryy	.	.	.	1ryy	2E-\	Qui-	.	2G/	Qui-	p	.	.	.	1ryy	.	.	.	2E-\	1ryy	.	1ryy	1ryy	1ryy	1ryy	.	.	.	.	.	.	1ryy	1ryy	.	.	1ryy	1ryy
.	.	.	.	.	.	.	.	2E-\	-a	.	2G/	-a	.	.	.	.	.	.	.	.	2E-\	.	.	.	.	.	.	.	.	.	.	.	.	.	.	.	.	.	.
=3	=3	=3	=3	=3	=3	=3	=3	=3	=3	=3	=3	=3	=3	=3	=3	=3	=3	=3	=3	=3	=3	=3	=3	=3	=3	=3	=3	=3	=3	=3	=3	=3	=3	=3	=3	=3	=3	=3	=3
*	*	*	*	*	*	*	*	*	*	*	*	*ij	*	*	*	*	*	*	*	*	*	*	*	*	*	*	*	*	*	*	*	*	*	*	*	*	*	*	*
!	!	!	!	!	!	!	!	!	!	!	!	!	!	!LO:SIC:s=4B-	!	!	!	!LO:TX:a:i:t=tutti	!	!	!	!	!	!	!	!	!	!	!	!	!	!	!	!	!	!	!	!	!
!	!	!	!	!	!	!	!	!	!	!	!	!	!	!	!	!LO:DY:b:rj	!	!	!	!	!	!	!	!	!	!	!	!	!	!	!	!	!	!	!	!	!	!	!
1ryy	1ryy	1ryy	1ryy	.	.	.	1ryy	2E-\	Qui-	.	2G/	Qui-	.	(>4B\	qui-	p	1ryy	2r	.	.	2E-\	1ryy	.	1ryy	1ryy	1ryy	1ryy	.	.	.	.	.	.	1ryy	1ryy	.	.	1ryy	1ryy
!	!	!	!	!	!	!	!	!	!	!	!	!	!	!LO:SIC:s=4e-	!	!	!	!	!	!	!	!	!	!	!	!	!	!	!	!	!	!	!	!	!	!	!	!	!
.	.	.	.	.	.	.	.	.	.	.	.	.	.	4e\)	.	.	.	.	.	.	.	.	.	.	.	.	.	.	.	.	.	.	.	.	.	.	.	.	.
!	!	!	!	!	!	!	!	!	!	!	!	!	!	!	!	!	!	!	!	!LO:HP:a	!	!	!	!	!	!	!	!	!	!	!	!	!	!	!	!	!	!	!
.	.	.	.	.	.	.	.	2E-\	-a	.	2G/	-a	.	(>4g\	-a	.	.	4b-\	qui-	<	2E-\	.	.	.	.	.	.	.	.	.	.	.	.	.	.	.	.	.	.
*	*	*	*	*	*	*	*	*	*Xij	*	*	*Xij	*	*	*	*	*	*	*	*	*	*	*	*	*	*	*	*	*	*	*	*	*	*	*	*	*	*	*
!	!	!	!	!	!	!	!	!	!	!	!	!	!	!LO:SIC:s=4b-	!	!	!	!	!	!	!	!	!	!	!	!	!	!	!	!	!	!	!	!	!	!	!	!	!
!	!	!	!	!	!	!	!	!	!	!	!	!	!	!	!	!	!	!	!	!LO:DY:b	!	!	!	!	!	!	!	!	!	!	!	!	!	!	!	!	!	!	!
.	.	.	.	.	.	.	.	.	.	.	.	.	.	4b\)	.	.	.	4ee-\	-a	f [[	.	.	.	.	.	.	.	.	.	.	.	.	.	.	.	.	.	.	.
!	!	!	!	!	!	!	!	!LO:LB:g=original	!	!	!LO:LB:g=original	!	!	!	!	!	!	!	!	!	!	!	!	!	!	!	!	!	!	!	!	!	!	!	!	!	!	!	!
=4	=4	=4	=4	=4	=4	=4	=4	=4||	=4	=4	=4||	=4	=4	=4	=4	=4	=4	=4	=4	=4	=4	=4	=4	=4	=4	=4	=4	=4	=4	=4	=4	=4	=4	=4	=4	=4	=4	=4	=4
*	*	*	*	*	*	*	*	*	*	*	*2\right	*	*	*2\right	*	*	*	*2\right	*	*	*	*	*	*	*	*	*	*	*	*	*	*	*	*	*	*	*	*	*
!	!	!	!	!	!	!	!	!	!	!	!	!	!	!LO:SIC:s=2.ee-	!	!	!	!	!	!	!	!	!	!	!	!	!	!	!	!	!	!	!	!	!	!	!	!	!
!	!	!	!	!	!	!	!	!	!	!LO:DY:b:rj	!	!	!	!	!	!	!	!	!	!	!	!	!LO:DY:b=2:rj	!	!	!	!	!	!	!	!	!	!	!	!	!	!	!	!
1ryy	1ryy	1ryy	1ryy	.	.	.	1ryy	2E-\	Pi-	f	2B-\	pi-	.	2.ee\	pi-	.	1ryy	2.gg\	Pi-	.	2E-\	1ryy	f	1ryy	1ryy	1ryy	1ryy	.	.	.	.	.	.	1ryy	1ryy	.	.	1ryy	1ryy
.	.	.	.	.	.	.	.	2E-\	-us	.	4ryy	.	.	.	.	.	.	.	.	.	2E-\	.	.	.	.	.	.	.	.	.	.	.	.	.	.	.	.	.	.
.	.	.	.	.	.	.	.	.	.	.	4B-\	-us	.	4g\	-us	.	.	4ee-\	-us	.	.	.	.	.	.	.	.	.	.	.	.	.	.	.	.	.	.	.	.
!	!	!	!	!	!	!	!	!	!	!	!	!	!	!LO:LB:g=original	!	!	!	!	!	!	!	!	!	!	!	!	!	!	!	!	!	!	!	!	!	!	!	!	!
!	!	!	!	!	!	!	!	!	!	!	!	!	!	!	!	!	!	!	!	!	!LO:LB:g=original	!	!	!	!	!	!	!	!	!	!	!	!	!	!	!	!	!	!
=5	=5	=5	=5	=5	=5	=5	=5	=5	=5	=5	=5	=5	=5	=5||	=5	=5	=5	=5	=5	=5	=5	=5	=5	=5	=5	=5	=5	=5	=5	=5	=5	=5	=5	=5	=5	=5	=5	=5	=5
!	!	!	!	!	!LO:TX:t=P:problem=fermata również u dołu	!	!	!	!	!	!	!	!	!LO:SIC:s=1a-	!	!	!	!	!	!	!	!	!	!	!	!	!	!	!	!	!	!	!	!	!	!	!	!	!
1ryy	1ryy	1ryy	1ryy	1r;>	1r;>;<	1r;	1ryy	1F^<;>	es	.	1B-;>	es	.	1a^<;>	es	.	1ryy	1dd^;>	es	.	1F^<;>	1ryy	.	1ryy	1ryy	1ryy	1ryy	1r;>	1r;>	1r;>	1r;>	1r;>	1r;>	1ryy	1ryy	1r;>	1r;>	1ryy	1ryy
!	!	!	!	!	!	!	!	!	!	!	!	!	!	!	!	!	!	!LO:LB:g=original	!	!	!	!	!	!	!	!	!	!	!	!	!	!	!	!	!	!	!	!	!
=6	=6	=6	=6	=6	=6	=6	=6	=6	=6	=6	=6	=6	=6	=6	=6	=6	=6	=6||	=6	=6	=6	=6	=6	=6	=6	=6	=6	=6	=6	=6	=6	=6	=6	=6	=6	=6	=6	=6	=6
!	!	!	!	!LO:TX:b:t=5.	!LO:TX:b:t=5.	!LO:TX:b:t=5.	!	!	!	!LO:DY:a	!	!	!	!LO:TX:a:t=1	!	!	!	!LO:TX:a:t=2.	!	!	!	!	!	!	!	!	!	!LO:TX:b:t=5.	!LO:TX:b:t=5	!LO:TX:b:t=5	!LO:TX:b:t=5.	!LO:TX:b:t=5	!LO:TX:b:t=5	!	!	!LO:TX:b:t=5	!LO:TX:b:t=5	!	!
!	!	!	!	!	!	!	!	!	!	!	!	!	!LO:DY:b:rj	!	!	!	!	!	!	!	!	!	!LO:DY:b=2:rj	!	!	!	!	!	!	!	!	!	!	!	!	!	!	!	!
!	!	!	!	!	!	!	!	!	!	!	!	!	!	!	!	!	!	!	!	!	!	!	!LO:HP:b=2:t=cres poco a poco	!	!	!	!	!	!	!	!	!	!	!	!	!	!	!	!
1ryy	1ryy	1ryy	1ryy	00r	00r	00r	1ryy	2BB-/	qui-	p <	2B-\	qui-	p	1r	.	.	1ryy	0r	.	.	2BB-/	1ryy	p <	1ryy	1ryy	1ryy	1ryy	00r	00r	00r	00r	00r	00r	1ryy	1ryy	00r	00r	1ryy	1ryy
.	.	.	.	.	.	.	.	2BB-/	-a	.	2B-\	-a	.	.	.	.	.	.	.	.	2BB-/	.	.	.	.	.	.	.	.	.	.	.	.	.	.	.	.	.	.
=7	=7	=7	=7	=7	=7	=7	=7	=7	=7	=7	=7	=7	=7	=7	=7	=7	=7	=7	=7	=7	=7	=7	=7	=7	=7	=7	=7	=7	=7	=7	=7	=7	=7	=7	=7	=7	=7	=7	=7
*	*	*	*	*	*	*	*	*	*ij	*	*	*ij	*	*	*	*	*	*	*	*	*	*	*	*	*	*	*	*	*	*	*	*	*	*	*	*	*	*	*
!	!	!	!	!	!	!	!	!LO:TX:b:i:t=poco a poco	!	!	!	!	!	!	!	!	!	!	!	!	!	!	!	!	!	!	!	!	!	!	!	!	!	!	!	!	!	!	!
!	!	!	!	!	!	!	!	!	!	!	!	!	!	!	!	!LO:DY:b:rj	!	!	!	!	!	!	!	!	!	!	!	!	!	!	!	!	!	!	!	!	!	!	!
1ryy	1ryy	1ryy	1ryy	.	.	.	1ryy	2BB-/	qui-	.	2B-\	qui-	.	2d\	qui-	p	1ryy	.	.	.	2BB-/	1ryy	.	1ryy	1ryy	1ryy	1ryy	.	.	.	.	.	.	1ryy	1ryy	.	.	1ryy	1ryy
.	.	.	.	.	.	.	.	2BB-/	-a	.	2B-\	-a	.	2d\	-a	.	.	.	.	.	2BB-/	.	.	.	.	.	.	.	.	.	.	.	.	.	.	.	.	.	.
=8	=8	=8	=8	=8	=8	=8	=8	=8	=8	=8	=8	=8	=8	=8	=8	=8	=8	=8	=8	=8	=8	=8	=8	=8	=8	=8	=8	=8	=8	=8	=8	=8	=8	=8	=8	=8	=8	=8	=8
!	!	!	!	!	!	!	!	!	!	!	!	!	!	!	!	!	!	!LO:TX:a:i:t=poco a poco	!	!	!	!	!	!	!	!	!	!	!	!	!	!	!	!	!	!	!	!	!
1ryy	1ryy	1ryy	1ryy	.	.	.	1ryy	2BB-/	qui-	.	2B-\	qui-	.	2d\	pi-	.	1ryy	2f/	qui-	.	2BB-/	1ryy	.	1ryy	1ryy	1ryy	1ryy	.	.	.	.	.	.	1ryy	1ryy	.	.	1ryy	1ryy
.	.	.	.	.	.	.	.	2BB-/	-a	.	2B-\	-a	.	2d\	-us	.	.	(<4f/	-a	.	2BB-/	.	.	.	.	.	.	.	.	.	.	.	.	.	.	.	.	.	.
*	*	*	*	*	*	*	*	*	*Xij	*	*	*Xij	*	*	*	*	*	*	*	*	*	*	*	*	*	*	*	*	*	*	*	*	*	*	*	*	*	*	*
.	.	.	.	.	.	.	.	.	.	.	.	.	.	.	.	.	.	4b-\)	.	.	.	.	.	.	.	.	.	.	.	.	.	.	.	.	.	.	.	.	.
=9	=9	=9	=9	=9	=9	=9	=9	=9	=9	=9	=9	=9	=9	=9	=9	=9	=9	=9	=9	=9	=9	=9	=9	=9	=9	=9	=9	=9	=9	=9	=9	=9	=9	=9	=9	=9	=9	=9	=9
*	*	*	*	*	*	*	*	*	*	*	*	*	*	*	*ij	*	*	*	*	*	*	*	*	*	*	*	*	*	*	*	*	*	*	*	*	*	*	*	*
!	!	!	!	!	!	!	!	!	!	!	!	!	!	!	!	!	!	!	!	!LO:HP:a	!	!	!	!	!	!	!	!	!	!	!	!	!	!	!	!	!	!	!
!	!	!	!	!	!	!	!	!	!	!	!	!	!	!	!	!LO:DY:b:rj	!	!	!	!	!	!	!	!	!	!	!	!	!	!	!	!	!	!	!	!	!	!	!
!	!	!	!	!	!	!	!	!	!	!LO:DY:b:rj	!	!	!	!	!	!	!	!	!	!	!	!	!LO:DY:b=2:rj	!	!	!	!	!	!	!	!	!	!	!	!	!	!	!	!
1ryy	1ryy	1ryy	1ryy	.	.	.	1ryy	2.BB-/	Pi-	f	2.B-\	pi-	.	2.f\	pi-	sf	1ryy	2.dd\	Pi-	<	2BB-/	1ryy	f	1ryy	1ryy	1ryy	1ryy	.	.	.	.	.	.	1ryy	1ryy	.	.	1ryy	1ryy
.	.	.	.	.	.	.	.	.	.	.	.	.	.	.	.	.	.	.	.	.	2BB-/	.	.	.	.	.	.	.	.	.	.	.	.	.	.	.	.	.	.
!	!	!	!	!	!	!	!	!	!	!	!	!	!	!LO:SIC:s=4a-	!	!	!	!	!	!	!	!	!	!	!	!	!	!	!	!	!	!	!	!	!	!	!	!	!
.	.	.	.	.	.	.	.	4BB-/	-us	.	4B-\	-us	.	4a\	-us	.	.	4ff\	-us	[	.	.	.	.	.	.	.	.	.	.	.	.	.	.	.	.	.	.	.
*	*	*	*	*	*	*	*	*	*	*	*	*	*	*	*Xij	*	*	*	*	*	*	*	*	*	*	*	*	*	*	*	*	*	*	*	*	*	*	*	*
=10	=10	=10	=10	=10	=10	=10	=10	=10	=10	=10	=10	=10	=10	=10	=10	=10	=10	=10	=10	=10	=10	=10	=10	=10	=10	=10	=10	=10	=10	=10	=10	=10	=10	=10	=10	=10	=10	=10	=10
!	!	!	!	!	!LO:TX:t=P:problem=fermata również u dołu	!	!	!	!	!	!	!	!	!	!	!	!	!	!	!	!	!	!	!	!	!	!	!	!	!	!	!	!	!	!	!	!	!	!
!	!	!	!	!	!	!	!	!	!	!	!	!	!	!	!	!	!	!	!	!LO:HP:b	!	!	!	!	!	!	!	!	!	!	!	!	!	!	!	!	!	!	!
1ryy	1ryy	1ryy	1ryy	1r;>	1r;>;<	1r;	1ryy	1E-;>	es	.	1B-^<;>	es	.	1g;>	est	.	1ryy	1ee-;>	es	>]	1E-^>;>	1ryy	.	1ryy	1ryy	1ryy	1ryy	1r;>	1r;>	1r;>	1r;>	1r;>	1r;>	1ryy	1ryy	1r;>	1r;>	1ryy	1ryy
!	!	!	!	!	!	!	!	!LO:LB:g=original	!	!	!LO:LB:g=original	!	!	!	!	!	!	!	!	!	!	!	!	!	!	!	!	!	!	!	!	!	!	!	!	!	!	!	!
=11	=11	=11	=11	=11	=11	=11	=11	=11	=11	=11	=11||	=11	=11	=11	=11	=11	=11	=11	=11	=11	=11	=11	=11	=11	=11	=11	=11	=11	=11	=11	=11	=11	=11	=11	=11	=11	=11	=11	=11
!	!	!	!	!	!	!	!	!	!	!	!	!	!	!LO:SIC:s=4b-	!	!	!	!	!	!	!	!	!	!	!	!	!	!	!	!	!	!	!	!	!	!	!	!	!
!	!	!	!	!LO:TX:b:t=4.	!LO:TX:b:t=4.	!LO:TX:b:t=4.	!	!LO:TX:a:t=1.	!	!	!LO:TX:a:t=1	!	!	!LO:TX:a:i:t=Solo	!	!	!	!	!	!	!	!	!	!	!	!	!	!LO:TX:b:t=4.	!LO:TX:b:t=4	!LO:TX:b:t=4	!LO:TX:b:t=4.	!LO:TX:b:t=4.	!LO:TX:b:t=4	!	!	!LO:TX:b:t=4	!LO:TX:b:t=4.	!	!
!	!	!	!	!	!LO:TX:t=P:problem=fermata również u dołu	!	!	!	!	!	!	!	!	!	!	!	!	!	!	!LO:DY:b	!	!	!	!	!	!	!	!	!	!	!	!	!	!	!	!	!	!	!
1ryy	1ryy	1ryy	1ryy	00r;>	00r;>;<	00r;>	1ryy	1r	.	.	1r	.	.	(>4b\	qui-	.	1ryy	(>4gg\	qui-	p	1r	1ryy	.	1ryy	1ryy	1ryy	1ryy	00r;>	00r;>	00r;>	00r;>	00r;>	00r;>	1ryy	1ryy	00r;>	00r;>	1ryy	1ryy
.	.	.	.	.	.	.	.	.	.	.	.	.	.	8g\)	.	.	.	8ee-\)	.	.	.	.	.	.	.	.	.	.	.	.	.	.	.	.	.	.	.	.	.
.	.	.	.	.	.	.	.	.	.	.	.	.	.	8r	.	.	.	8r	.	.	.	.	.	.	.	.	.	.	.	.	.	.	.	.	.	.	.	.	.
.	.	.	.	.	.	.	.	.	.	.	.	.	.	(>4g\	-a	.	.	(>4ee-\	-a	.	.	.	.	.	.	.	.	.	.	.	.	.	.	.	.	.	.	.	.
!	!	!	!	!	!	!	!	!	!	!	!	!	!	!LO:SIC:s=8e-	!	!	!	!	!	!	!	!	!	!	!	!	!	!	!	!	!	!	!	!	!	!	!	!	!
.	.	.	.	.	.	.	.	.	.	.	.	.	.	8e\)	.	.	.	8cc\)	.	.	.	.	.	.	.	.	.	.	.	.	.	.	.	.	.	.	.	.	.
.	.	.	.	.	.	.	.	.	.	.	.	.	.	8r	.	.	.	8r	.	.	.	.	.	.	.	.	.	.	.	.	.	.	.	.	.	.	.	.	.
!	!	!	!	!	!	!	!	!	!	!	!	!	!	!LO:LB:g=original	!	!	!	!	!	!	!	!	!	!	!	!	!	!	!	!	!	!	!	!	!	!	!	!	!
=12	=12	=12	=12	=12	=12	=12	=12	=12	=12	=12	=12	=12	=12	=12	=12	=12	=12	=12	=12	=12	=12	=12	=12	=12	=12	=12	=12	=12	=12	=12	=12	=12	=12	=12	=12	=12	=12	=12	=12
!	!	!	!	!	!	!	!	!LO:TX:a:i:t=Solo	!	!	!LO:TX:a:i:t=Solo	!	!	!LO:SIC:s=2e-	!	!	!	!	!	!LO:HP:a	!	!	!	!	!	!	!	!	!	!	!	!	!	!	!	!	!	!	!
!	!	!	!	!	!	!	!	!	!	!	!	!	!LO:DY:b:rj	!	!	!	!	!	!	!	!	!	!	!	!	!	!	!	!	!	!	!	!	!	!	!	!	!	!
!	!	!	!	!	!	!	!	!	!	!LO:DY:b:rj	!	!	!	!	!	!	!	!	!	!	!	!	!	!	!	!	!	!	!	!	!	!	!	!	!	!	!	!	!
1ryy	1ryy	1ryy	1ryy	.	.	.	1ryy	4G\	qui-	p	(>4B-\	qui-	p	2e\	qui-	.	1ryy	2b-\	qui-	<	(>4G\	1ryy	.	1ryy	1ryy	1ryy	1ryy	.	.	.	.	.	.	1ryy	1ryy	.	.	1ryy	1ryy
.	.	.	.	.	.	.	.	8E-\	.	.	8G\)	-a	.	.	.	.	.	.	.	.	8E-\)	.	.	.	.	.	.	.	.	.	.	.	.	.	.	.	.	.	.
.	.	.	.	.	.	.	.	8r	.	.	8r	.	.	.	.	.	.	.	.	.	8r	.	.	.	.	.	.	.	.	.	.	.	.	.	.	.	.	.	.
*	*	*	*	*	*	*	*	*	*	*	*	*ij	*	*	*	*	*	*	*	*	*	*	*	*	*	*	*	*	*	*	*	*	*	*	*	*	*	*	*
!	!	!	!	!	!	!	!	!	!	!	!	!	!	!LO:SIC:s=2e-	!	!	!	!	!	!	!	!	!	!	!	!	!	!	!	!	!	!	!	!	!	!	!	!	!
.	.	.	.	.	.	.	.	4E-\	-a	.	(>4g\	qui-	.	2e\	-a	.	.	2g\	-a	[[	(>4E-\	.	.	.	.	.	.	.	.	.	.	.	.	.	.	.	.	.	.
.	.	.	.	.	.	.	.	8C\	.	.	8e-\)	-a	.	.	.	.	.	.	.	.	8C\)	.	.	.	.	.	.	.	.	.	.	.	.	.	.	.	.	.	.
*	*	*	*	*	*	*	*	*	*	*	*	*Xij	*	*	*	*	*	*	*	*	*	*	*	*	*	*	*	*	*	*	*	*	*	*	*	*	*	*	*
.	.	.	.	.	.	.	.	8r	.	.	8r	.	.	.	.	.	.	.	.	.	8r	.	.	.	.	.	.	.	.	.	.	.	.	.	.	.	.	.	.
!	!	!	!	!	!	!	!	!	!	!	!	!	!	!	!	!	!	!LO:LB:g=original	!	!	!	!	!	!	!	!	!	!	!	!	!	!	!	!	!	!	!	!	!
!	!	!	!	!	!	!	!	!	!	!	!	!	!	!	!	!	!	!	!	!	!LO:LB:g=original	!	!	!	!	!	!	!	!	!	!	!	!	!	!	!	!	!	!
=13	=13	=13	=13	=13	=13	=13	=13	=13	=13	=13	=13	=13	=13	=13	=13	=13	=13	=13||	=13	=13	=13	=13	=13	=13	=13	=13	=13	=13	=13	=13	=13	=13	=13	=13	=13	=13	=13	=13	=13
!	!	!	!	!	!	!	!	!	!	!	!	!	!	!	!	!	!	!	!	!LO:HP:a	!	!	!	!	!	!	!	!	!	!	!	!	!	!	!	!	!	!	!
1ryy	1ryy	1ryy	1ryy	.	.	.	1ryy	2BB-/	Pi-	.	(>4e-\	Pi-	.	2.f\	pi-	.	1ryy	2.a-\	Pi-	>	(<2BB-/	1ryy	.	1ryy	1ryy	1ryy	1ryy	.	.	.	.	.	.	1ryy	1ryy	.	.	1ryy	1ryy
.	.	.	.	.	.	.	.	.	.	.	4d\)	.	.	.	.	.	.	.	.	.	.	.	.	.	.	.	.	.	.	.	.	.	.	.	.	.	.	.	.
.	.	.	.	.	.	.	.	(<4C/	.	.	(>4c\	-us	.	.	.	.	.	.	.	.	4C/)	.	.	.	.	.	.	.	.	.	.	.	.	.	.	.	.	.	.
.	.	.	.	.	.	.	.	4D/)	-us	.	4B-\)	.	.	4f\	-us	.	.	4b-\	-us	]]	4D/	.	.	.	.	.	.	.	.	.	.	.	.	.	.	.	.	.	.
=14	=14	=14	=14	=14	=14	=14	=14	=14	=14	=14	=14	=14	=14	=14	=14	=14	=14	=14	=14	=14	=14	=14	=14	=14	=14	=14	=14	=14	=14	=14	=14	=14	=14	=14	=14	=14	=14	=14	=14
1ryy	1ryy	1ryy	1ryy	.	.	.	1ryy	1E-;>	es	.	1B-;>	es	.	1e;>	es	.	1r;yy	1g;>	es	.	1E-;>	1ryy	.	1ryy	1ryy	1ryy	1ryy	.	.	.	.	.	.	1ryy	1ryy	.	.	1ryy	1ryy
=15	=15	=15	=15	=15	=15	=15	=15	=15	=15	=15	=15	=15	=15	=15	=15	=15	=15	=15	=15	=15	=15	=15	=15	=15	=15	=15	=15	=15	=15	=15	=15	=15	=15	=15	=15	=15	=15	=15	=15
!	!	!	!	!	!LO:TX:t=P:problem=fermata również u dołu	!	!	!	!	!	!	!	!	!LO:SIC:s=4b-	!	!	!	!	!	!	!	!	!	!	!	!	!	!	!	!	!	!	!	!	!	!	!	!	!
!	!	!	!	!LO:TX:b:t=4.	!LO:TX:b:t=4.	!LO:TX:b:t=4.	!	!LO:TX:a:t=1	!	!	!LO:TX:a:t=1	!	!	!LO:TX:a:i:t=dol.	!	!	!	!LO:TX:b:i:t=dolce	!	!	!	!	!	!	!	!	!	!LO:TX:b:t=4.	!LO:TX:b:t=4	!LO:TX:b:t=4	!LO:TX:b:t=4.	!LO:TX:b:t=4.	!LO:TX:b:t=4	!	!	!LO:TX:b:t=4	!LO:TX:b:t=4.	!	!
1ryy	1ryy	1ryy	1ryy	00r;>	00r;>;<	00r;>	1ryy	1r	.	.	1r	.	.	(>4b\	qui-	.	1ryy	(>4gg\	qui-	.	1r	1ryy	.	1ryy	1ryy	1ryy	1ryy	00r;>	00r;>	00r;>	00r;>	00r;>	00r;>	1ryy	1ryy	00r;>	00r;>	1ryy	1ryy
.	.	.	.	.	.	.	.	.	.	.	.	.	.	8g\)	.	.	.	8ee-\)	.	.	.	.	.	.	.	.	.	.	.	.	.	.	.	.	.	.	.	.	.
.	.	.	.	.	.	.	.	.	.	.	.	.	.	8r	.	.	.	8r	.	.	.	.	.	.	.	.	.	.	.	.	.	.	.	.	.	.	.	.	.
.	.	.	.	.	.	.	.	.	.	.	.	.	.	(>4g\	-a	.	.	(>4ee-\	-a	.	.	.	.	.	.	.	.	.	.	.	.	.	.	.	.	.	.	.	.
!	!	!	!	!	!	!	!	!	!	!	!	!	!	!LO:SIC:s=8e-	!	!	!	!	!	!	!	!	!	!	!	!	!	!	!	!	!	!	!	!	!	!	!	!	!
.	.	.	.	.	.	.	.	.	.	.	.	.	.	8e\)	.	.	.	8cc\)	.	.	.	.	.	.	.	.	.	.	.	.	.	.	.	.	.	.	.	.	.
.	.	.	.	.	.	.	.	.	.	.	.	.	.	8r	.	.	.	8r	.	.	.	.	.	.	.	.	.	.	.	.	.	.	.	.	.	.	.	.	.
=16	=16	=16	=16	=16	=16	=16	=16	=16	=16	=16	=16	=16	=16	=16	=16	=16	=16	=16	=16	=16	=16	=16	=16	=16	=16	=16	=16	=16	=16	=16	=16	=16	=16	=16	=16	=16	=16	=16	=16
!	!	!	!	!	!	!	!	!LO:TX:a:i:t=Dol	!	!	!LO:TX:a:i:t=dol:	!	!	!LO:SIC:s=2e-	!	!	!	!	!	!LO:HP:a	!	!	!	!	!	!	!	!	!	!	!	!	!	!	!	!	!	!	!
1ryy	1ryy	1ryy	1ryy	.	.	.	1ryy	(>4G\	qui-	.	(>4B-\	qui-	.	2e\	qui-	.	1ryy	2b-\	qui-	<	(>4G\	1ryy	.	1ryy	1ryy	1ryy	1ryy	.	.	.	.	.	.	1ryy	1ryy	.	.	1ryy	1ryy
.	.	.	.	.	.	.	.	8E-\)	.	.	8G\)	.	.	.	.	.	.	.	.	.	8E-\)	.	.	.	.	.	.	.	.	.	.	.	.	.	.	.	.	.	.
.	.	.	.	.	.	.	.	8r	.	.	8r	.	.	.	.	.	.	.	.	.	8r	.	.	.	.	.	.	.	.	.	.	.	.	.	.	.	.	.	.
!	!	!	!	!	!	!	!	!	!	!	!LO:TX:t=P:\4:problem	!	!	!LO:SIC:s=2-	!	!	!	!	!	!	!	!	!	!	!	!	!	!	!	!	!	!	!	!	!	!	!	!	!
.	.	.	.	.	.	.	.	(>4E-\	-a	.	(>4g\	-a	.	2e\	-a	.	.	2g\	-a	[[	(>4E-\	.	.	.	.	.	.	.	.	.	.	.	.	.	.	.	.	.	.
.	.	.	.	.	.	.	.	8C\)	.	.	8e-\)	.	.	.	.	.	.	.	.	.	8C\)	.	.	.	.	.	.	.	.	.	.	.	.	.	.	.	.	.	.
.	.	.	.	.	.	.	.	8r	.	.	8r	.	.	.	.	.	.	.	.	.	8r	.	.	.	.	.	.	.	.	.	.	.	.	.	.	.	.	.	.
!	!	!	!	!	!	!	!	!	!	!	!	!	!	!LO:LB:g=original	!	!	!	!	!	!	!	!	!	!	!	!	!	!	!	!	!	!	!	!	!	!	!	!	!
!	!	!	!	!	!	!	!	!LO:LB:g=original	!	!	!LO:LB:g=original	!	!	!	!	!	!	!	!	!	!	!	!	!	!	!	!	!	!	!	!	!	!	!	!	!	!	!	!
=17	=17	=17	=17	=17	=17	=17	=17	=17	=17	=17	=17||	=17	=17	=17	=17	=17	=17	=17	=17	=17	=17	=17	=17	=17	=17	=17	=17	=17	=17	=17	=17	=17	=17	=17	=17	=17	=17	=17	=17
!	!	!	!	!	!	!	!	!	!	!	!	!	!	!	!	!	!	!	!	!LO:HP:a	!	!	!	!	!	!	!	!	!	!	!	!	!	!	!	!	!	!	!
1ryy	1ryy	1ryy	1ryy	.	.	.	1ryy	(<2BB-/	Pi-	.	(>4e-\	Pi-	.	2.f\	pi-	.	1ryy	2.a-\S	pi-	>	(<2BB-/	1ryy	.	1ryy	1ryy	1ryy	1ryy	.	.	.	.	.	.	1ryy	1ryy	.	.	1ryy	1ryy
.	.	.	.	.	.	.	.	.	.	.	4d\)	.	.	.	.	.	.	.	.	.	.	.	.	.	.	.	.	.	.	.	.	.	.	.	.	.	.	.	.
.	.	.	.	.	.	.	.	4C/)	.	.	4c\	.	.	.	.	.	.	.	.	.	4.C/)	.	.	.	.	.	.	.	.	.	.	.	.	.	.	.	.	.	.
.	.	.	.	.	.	.	.	4D/	-us	.	4B-\	-us	.	4f\	-us	.	.	4b-\	-us	]	.	.	.	.	.	.	.	.	.	.	.	.	.	.	.	.	.	.	.
.	.	.	.	.	.	.	.	.	.	.	.	.	.	.	.	.	.	.	.	.	8D/	.	.	.	.	.	.	.	.	.	.	.	.	.	.	.	.	.	.
=18	=18	=18	=18	=18	=18	=18	=18	=18	=18	=18	=18	=18	=18	=18	=18	=18	=18	=18	=18	=18	=18	=18	=18	=18	=18	=18	=18	=18	=18	=18	=18	=18	=18	=18	=18	=18	=18	=18	=18
!	!	!	!	!	!	!	!	!	!	!	!	!	!	!LO:SIC:s=2e-	!	!	!	!	!	!	!	!	!	!	!	!	!	!	!	!	!	!	!	!	!	!	!	!	!
1ryy	1ryy	1ryy	1ryy	.	.	.	1ryy	2E-;>\	es	.	2B-;>\	es	.	2e;>\	es	.	1ryy	2g;>\	es	.	2E-;>\	1ryy	.	1ryy	1ryy	1ryy	1ryy	.	.	.	.	.	.	1ryy	1ryy	.	.	1ryy	1ryy
.	.	.	.	.	.	.	.	4r	.	.	4r	.	.	4r	.	.	.	4r	.	.	4r	.	.	.	.	.	.	.	.	.	.	.	.	.	.	.	.	.	.
!	!	!	!	!	!	!	!	!LO:TX:a:i:t=tutti	!	!	!	!	!	!LO:SIC:v:s=4b-	!	!	!	!LO:TX:a:i:t=tutti	!	!	!	!	!	!	!	!	!	!	!	!	!	!	!	!	!	!	!	!	!
!	!	!	!	!	!	!	!	!	!	!	!	!	!	!	!	!LO:DY:b	!	!	!	!	!	!	!	!	!	!	!	!	!	!	!	!	!	!	!	!	!	!	!
!	!	!	!	!	!	!	!	!	!	!	!	!	!LO:DY:b:rj	!	!	!	!	!	!	!	!	!	!	!	!	!	!	!	!	!	!	!	!	!	!	!	!	!	!
.	.	.	.	.	.	.	.	4E-\	cum	.	4e-\	cum	f	4b\	cum	f	.	4ee-\	cum	.	4E-\	.	.	.	.	.	.	.	.	.	.	.	.	.	.	.	.	.	.
!	!	!	!	!	!	!	!	!	!	!	!	!	!	!	!	!	!	!LO:PB:g=original	!	!	!	!	!	!	!	!	!	!	!	!	!	!	!	!	!	!	!	!	!
!	!	!	!	!	!	!	!	!	!	!	!	!	!	!	!	!	!	!	!	!	!LO:LB:g=original	!	!	!	!	!	!	!	!	!	!	!	!	!	!	!	!	!	!
=19	=19	=19	=19	=19	=19	=19	=19	=19	=19	=19	=19	=19	=19	=19	=19	=19	=19	=19||	=19	=19	=19||	=19||	=19	=19	=19	=19	=19	=19	=19	=19	=19	=19	=19	=19	=19	=19	=19	=19	=19
!	!	!	!	!LO:TX:b:t=11.	!LO:TX:b:t=11.	!LO:TX:b:t=11.	!	!	!	!	!	!	!	!LO:SIC:s=2b-	!	!	!	!	!	!	!	!	!	!	!	!	!	!LO:TX:b:t=11	!LO:TX:b:t=11	!LO:TX:b:t=11	!LO:TX:b:t=11	!LO:TX:b:t=11	!LO:TX:b:t=11	!	!	!LO:TX:b:t=11	!LO:TX:b:t=11	!	!
1ryy	1ryy	1ryy	1ryy	00r	00r	00r	1ryy	2G^>\	san-	.	2e-^>\	san-	.	2b^<\	sanc-	.	1ryy	2ee-^\	san-	.	2G^>\	1ryy	.	1ryy	1ryy	1ryy	1ryy	00r;>	00r;>	00r;>	00r;>	00r;>	00r	1ryy	1ryy	00r;>	00r;>	1ryy	1ryy
!	!	!	!	!	!	!	!	!	!	!	!	!	!	!LO:SIC:s=2b-	!	!	!	!	!	!	!	!	!	!	!	!	!	!	!	!	!	!	!	!	!	!	!	!	!
.	.	.	.	.	.	.	.	2E-^>\	-ctis	.	2e-^>\	-ctis	.	2b^<\	-tis	.	.	2dd-X^\	-ctis	.	2E-^>\	.	.	.	.	.	.	.	.	.	.	.	.	.	.	.	.	.	.
=20	=20	=20	=20	=20	=20	=20	=20	=20	=20	=20	=20	=20	=20	=20	=20	=20	=20	=20	=20	=20	=20	=20	=20	=20	=20	=20	=20	=20	=20	=20	=20	=20	=20	=20	=20	=20	=20	=20	=20
!	!	!	!	!	!	!	!	!	!	!	!	!	!	!LO:SIC:s=2b-	!	!	!	!	!	!	!	!	!	!	!	!	!	!	!	!	!	!	!	!	!	!	!	!	!
1ryy	1ryy	1ryy	1ryy	.	.	.	1ryy	2A-^>\	tu-	.	2e-^>\	tu-	.	2b\	tu-	.	1ryy	2dd-X^\	tu-	.	2A-^>\	1ryy	.	1ryy	1ryy	1ryy	1ryy	.	.	.	.	.	.	1ryy	1ryy	.	.	1ryy	1ryy
!	!	!	!	!	!	!	!	!	!	!	!	!	!	!LO:SIC:s=8a-	!	!	!	!	!	!	!	!	!	!	!	!	!	!	!	!	!	!	!	!	!	!	!	!	!
.	.	.	.	.	.	.	.	8AA-/	-is	.	8e-\	-is	.	8a\	-is	.	.	8cc\	-is	.	8AA-/	.	.	.	.	.	.	.	.	.	.	.	.	.	.	.	.	.	.
.	.	.	.	.	.	.	.	8r	.	.	8r	.	.	8r	.	.	.	8r	.	.	8r	.	.	.	.	.	.	.	.	.	.	.	.	.	.	.	.	.	.
*	*	*	*	*	*	*	*	*	*ij	*	*	*	*	*	*	*	*	*	*	*	*	*	*	*	*	*	*	*	*	*	*	*	*	*	*	*	*	*	*
.	.	.	.	.	.	.	.	4F\	cum	.	4f\	cum	.	4cc\	cum	.	.	4ff\	cum	.	4F\	.	.	.	.	.	.	.	.	.	.	.	.	.	.	.	.	.	.
=21	=21	=21	=21	=21	=21	=21	=21	=21	=21	=21	=21	=21	=21	=21	=21	=21	=21	=21	=21	=21	=21	=21	=21	=21	=21	=21	=21	=21	=21	=21	=21	=21	=21	=21	=21	=21	=21	=21	=21
1ryy	1ryy	1ryy	1ryy	.	.	.	1ryy	2An^>\	san-	.	2f^>\	san-	.	2cc^<\	san-	.	1ryy	2ff^\	san-	.	2An^>\	1ryy	.	1ryy	1ryy	1ryy	1ryy	.	.	.	.	.	.	1ryy	1ryy	.	.	1ryy	1ryy
.	.	.	.	.	.	.	.	2F^>\	-ctis	.	2f^>\	-ctis	.	2cc^<\	-ctis	.	.	2ee-^\	-ctis	.	2F^>\	.	.	.	.	.	.	.	.	.	.	.	.	.	.	.	.	.	.
!	!	!	!	!	!	!	!	!	!	!	!	!	!	!LO:LB:g=original	!	!	!	!	!	!	!	!	!	!	!	!	!	!	!	!	!	!	!	!	!	!	!	!	!
=22	=22	=22	=22	=22	=22	=22	=22	=22	=22	=22	=22	=22	=22	=22	=22	=22	=22	=22	=22	=22	=22	=22	=22	=22	=22	=22	=22	=22	=22	=22	=22	=22	=22	=22	=22	=22	=22	=22	=22
1ryy	1ryy	1ryy	1ryy	.	.	.	1ryy	2B-^>\	tu-	.	2f^>\	tu-	.	2cc^<\	tu-	.	1ryy	2ee-^\	tu-	.	2B-^>\	1ryy	.	1ryy	1ryy	1ryy	1ryy	.	.	.	.	.	.	1ryy	1ryy	.	.	1ryy	1ryy
!	!	!	!	!	!	!	!	!	!	!	!	!	!	!LO:SIC:s=4b-	!	!	!	!	!	!	!	!	!	!	!	!	!	!	!	!	!	!	!	!	!	!	!	!	!
.	.	.	.	.	.	.	.	4BB-/	-is	.	4f\	-is	.	4b\	-is	.	.	4ddn\	-is	.	4BB-/	.	.	.	.	.	.	.	.	.	.	.	.	.	.	.	.	.	.
*	*	*	*	*	*	*	*	*	*Xij	*	*	*	*	*	*	*	*	*	*	*	*	*	*	*	*	*	*	*	*	*	*	*	*	*	*	*	*	*	*
.	.	.	.	.	.	.	.	4r	.	.	4r	.	.	4r	.	.	.	4r	.	.	4r	.	.	.	.	.	.	.	.	.	.	.	.	.	.	.	.	.	.
!	!	!	!	!	!	!	!	!LO:LB:g=original	!	!	!	!	!	!	!	!	!	!	!	!	!	!	!	!	!	!	!	!	!	!	!	!	!	!	!	!	!	!	!
=23	=23	=23	=23	=23	=23	=23	=23	=23	=23	=23	=23	=23	=23	=23	=23	=23	=23	=23	=23	=23	=23	=23	=23	=23	=23	=23	=23	=23	=23	=23	=23	=23	=23	=23	=23	=23	=23	=23	=23
!	!	!	!	!	!	!	!	!LO:TX:a:t=4.	!	!	!	!	!	!	!	!	!	!LO:TX:a:i:t=Solo	!	!	!	!	!	!	!	!	!	!	!	!	!	!	!	!	!	!	!	!	!
!	!	!	!	!	!	!	!	!	!	!	!	!	!	!	!	!LO:DY:b	!	!	!	!	!LO:TX:a:t=4.	!	!	!	!	!	!	!	!	!	!	!	!	!	!	!	!	!	!
1ryy	1ryy	1ryy	1ryy	00r	00r	00r	1ryy	00r	.	.	2r	.	.	2r	.	p	1ryy	2r	.	.	00r	1ryy	.	1ryy	1ryy	1ryy	1ryy	00r	00r	00r	00r	00r	00r	1ryy	1ryy	00r	00r	1ryy	1ryy
!	!	!	!	!	!	!	!	!	!	!	!	!	!	!	!	!LO:HP:a	!	!	!	!LO:DY:b:rj	!	!	!	!	!	!	!	!	!	!	!	!	!	!	!	!	!	!	!
!	!	!	!	!	!	!	!	!	!	!	!	!	!	!	!	!	!	!	!	!LO:HP:a	!	!	!	!	!	!	!	!	!	!	!	!	!	!	!	!	!	!	!
.	.	.	.	.	.	.	.	.	.	.	4.d\	qui-	.	4.f\	qui-	<	.	4.b-\	qui-	p <	.	.	.	.	.	.	.	.	.	.	.	.	.	.	.	.	.	.	.
.	.	.	.	.	.	.	.	.	.	.	8d\	-a	.	8f\	-a	[[	.	8b-\	-a	[[	.	.	.	.	.	.	.	.	.	.	.	.	.	.	.	.	.	.	.
!	!	!	!	!	!	!	!	!	!	!	!LO:LB:g=original	!	!	!	!	!	!	!	!	!	!	!	!	!	!	!	!	!	!	!	!	!	!	!	!	!	!	!	!
=24	=24	=24	=24	=24	=24	=24	=24	=24	=24	=24	=24	=24	=24	=24	=24	=24	=24	=24	=24	=24	=24	=24	=24	=24	=24	=24	=24	=24	=24	=24	=24	=24	=24	=24	=24	=24	=24	=24	=24
!	!	!	!	!	!	!	!	!	!	!	!	!	!	!	!	!LO:HP:a	!	!	!	!LO:HP:a	!	!	!	!	!	!	!	!	!	!	!	!	!	!	!	!	!	!	!
1ryy	1ryy	1ryy	1ryy	.	.	.	1ryy	.	.	.	4.e-\	pi-	.	4.g-X\	pi-	>	1ryy	4.an\	pi-	>	.	1ryy	.	1ryy	1ryy	1ryy	1ryy	.	.	.	.	.	.	1ryy	1ryy	.	.	1ryy	1ryy
.	.	.	.	.	.	.	.	.	.	.	8e-\	-us	.	8g-\	-us	]	.	8a\	-us	.	.	.	.	.	.	.	.	.	.	.	.	.	.	.	.	.	.	.	.
.	.	.	.	.	.	.	.	.	.	.	4d\	es	.	4f\	est	.	.	4b-\	es	]	.	.	.	.	.	.	.	.	.	.	.	.	.	.	.	.	.	.	.
.	.	.	.	.	.	.	.	.	.	.	4r	.	.	4r	.	.	.	4r	.	.	.	.	.	.	.	.	.	.	.	.	.	.	.	.	.	.	.	.	.
!	!	!	!	!	!	!	!	!	!	!	!	!	!	!	!	!	!	!LO:LB:g=original	!	!	!	!	!	!	!	!	!	!	!	!	!	!	!	!	!	!	!	!	!
=25	=25	=25	=25	=25	=25	=25	=25	=25	=25	=25	=25	=25	=25	=25	=25	=25	=25	=25||	=25	=25	=25	=25	=25	=25	=25	=25	=25	=25	=25	=25	=25	=25	=25	=25	=25	=25	=25	=25	=25
1ryy	1ryy	1ryy	1ryy	.	.	.	1ryy	.	.	.	2r	.	.	2r	.	.	1ryy	2r	.	.	.	1ryy	.	1ryy	1ryy	1ryy	1ryy	.	.	.	.	.	.	1ryy	1ryy	.	.	1ryy	1ryy
*	*	*	*	*	*	*	*	*	*	*	*	*ij	*	*	*	*	*	*	*ij	*	*	*	*	*	*	*	*	*	*	*	*	*	*	*	*	*	*	*	*
!	!	!	!	!	!	!	!	!	!	!	!	!	!	!	!	!	!	!	!	!LO:HP:a	!	!	!	!	!	!	!	!	!	!	!	!	!	!	!	!	!	!	!
.	.	.	.	.	.	.	.	.	.	.	4.d\	qui-	.	4.f\	qui-	.	.	4.b-\	qui-	<	.	.	.	.	.	.	.	.	.	.	.	.	.	.	.	.	.	.	.
.	.	.	.	.	.	.	.	.	.	.	8d\	-a	.	8f\	-a	.	.	8b-\	-a	[[	.	.	.	.	.	.	.	.	.	.	.	.	.	.	.	.	.	.	.
!	!	!	!	!	!	!	!	!	!	!	!	!	!	!LO:LB:g=original	!	!	!	!	!	!	!	!	!	!	!	!	!	!	!	!	!	!	!	!	!	!	!	!	!
=26	=26	=26	=26	=26	=26	=26	=26	=26	=26	=26	=26	=26	=26	=26	=26	=26	=26	=26	=26	=26	=26	=26	=26	=26	=26	=26	=26	=26	=26	=26	=26	=26	=26	=26	=26	=26	=26	=26	=26
!	!	!	!	!	!	!	!	!	!	!	!	!	!LO:HP:a	!	!	!LO:HP:a	!	!	!	!LO:HP:a	!	!	!	!	!	!	!	!	!	!	!	!	!	!	!	!	!	!	!
1ryy	1ryy	1ryy	1ryy	.	.	.	1ryy	.	.	.	4.e-\	pi-	>	4.g-X\	pi-	>	1ryy	4.an\	pi-	>	.	1ryy	.	1ryy	1ryy	1ryy	1ryy	.	.	.	.	.	.	1ryy	1ryy	.	.	1ryy	1ryy
.	.	.	.	.	.	.	.	.	.	.	8e-\	-us	.	8g-\	-us	.	.	8a\	-us	.	.	.	.	.	.	.	.	.	.	.	.	.	.	.	.	.	.	.	.
.	.	.	.	.	.	.	.	.	.	.	4d\	es	]	4f\	es	]	.	4b-\	es	.	.	.	.	.	.	.	.	.	.	.	.	.	.	.	.	.	.	.	.
*	*	*	*	*	*	*	*	*	*	*	*	*Xij	*	*	*	*	*	*	*	*	*	*	*	*	*	*	*	*	*	*	*	*	*	*	*	*	*	*	*
.	.	.	.	.	.	.	.	.	.	.	4r	.	.	4r	.	.	.	4r	.	]	.	.	.	.	.	.	.	.	.	.	.	.	.	.	.	.	.	.	.
=27	=27	=27	=27	=27	=27	=27	=27	=27	=27	=27	=27	=27	=27	=27	=27	=27	=27	=27	=27	=27	=27	=27	=27	=27	=27	=27	=27	=27	=27	=27	=27	=27	=27	=27	=27	=27	=27	=27	=27
!	!	!	!	!	!	!	!	!	!	!	!	!	!	!	!	!	!	!LO:TX:a:i:t=tutti	!	!	!	!	!	!	!	!	!	!	!	!	!	!	!	!	!	!	!	!	!
!	!	!	!	!	!	!	!	!	!	!	!	!	!	!	!	!LO:DY:b	!	!	!	!	!	!	!	!	!	!	!	!	!	!	!	!	!	!	!	!	!	!	!
!	!	!	!	!	!	!	!	!	!	!	!	!	!LO:DY:b	!	!	!	!	!	!	!	!	!	!	!	!	!	!	!	!	!	!	!	!	!	!	!	!	!	!
1ryy	1ryy	1ryy	1ryy	0r	0r	0r	1ryy	2r	.	.	2r	.	f	2r	.	f	1ryy	2r	.	.	2r	1ryy	.	1ryy	1ryy	1ryy	1ryy	0r	0r	0r	0r	0r	0r	1ryy	1ryy	0r	0r	1ryy	1ryy
!	!	!	!	!	!	!	!	!LO:TX:a:i:t=tutti	!	!	!	!	!	!LO:SIC:s=4.a-	!	!	!	!	!	!	!	!	!	!	!	!	!	!	!	!	!	!	!	!	!	!	!	!	!
!	!	!	!	!	!	!	!	!	!	!LO:DY:b:rj	!	!	!	!	!	!	!	!	!	!	!	!	!LO:DY:b=2:rj	!	!	!	!	!	!	!	!	!	!	!	!	!	!	!	!
.	.	.	.	.	.	.	.	4.D\	qui-	f	4.f\	qui-	.	4.a\	qui-	.	.	4.cc\	qui-	.	4.D\	.	f	.	.	.	.	.	.	.	.	.	.	.	.	.	.	.	.
!	!	!	!	!	!	!	!	!	!	!	!	!	!	!LO:SIC:s=8a-	!	!	!	!	!	!	!	!	!	!	!	!	!	!	!	!	!	!	!	!	!	!	!	!	!
.	.	.	.	.	.	.	.	8D\	-a	.	8f\	-a	.	8a\	-a	.	.	8cc\	-a	.	8D\	.	.	.	.	.	.	.	.	.	.	.	.	.	.	.	.	.	.
!	!	!	!	!	!	!	!	!	!	!	!	!	!	!	!	!	!	!	!	!	!LO:LB:g=original	!	!	!	!	!	!	!	!	!	!	!	!	!	!	!	!	!	!
=28	=28	=28	=28	=28	=28	=28	=28	=28	=28	=28	=28	=28	=28	=28	=28	=28	=28	=28	=28	=28	=28	=28	=28	=28	=28	=28	=28	=28	=28	=28	=28	=28	=28	=28	=28	=28	=28	=28	=28
!	!	!	!	!	!	!	!	!	!	!	!	!	!	!	!	!LO:HP:a	!	!	!	!LO:HP:a	!	!	!	!	!	!	!	!	!	!	!	!	!	!	!	!	!	!	!
!	!	!	!	!	!	!	!	!	!	!	!	!	!LO:HP:b	!	!	!	!	!	!	!	!	!	!	!	!	!	!	!	!	!	!	!	!	!	!	!	!	!	!
!	!	!	!	!	!	!	!	!	!	!LO:HP:b	!	!	!	!	!	!	!	!	!	!	!	!	!	!	!	!	!	!	!	!	!	!	!	!	!	!	!	!	!
1ryy	1ryy	1ryy	1ryy	.	.	.	1ryy	(>4E-\	Pi-	>	2.g\	pi-	>	2.gn\	pi-	>	1ryy	2.b-\	pi-	>	(>4E-\	1ryy	.	1ryy	1ryy	1ryy	1ryy	.	.	.	.	.	.	1ryy	1ryy	.	.	1ryy	1ryy
!	!	!	!	!	!	!	!	!	!	!	!	!	!	!	!	!	!	!	!	!	!	!	!LO:HP:b=2	!	!	!	!	!	!	!	!	!	!	!	!	!	!	!	!
.	.	.	.	.	.	.	.	4G\	.	.	.	.	.	.	.	.	.	.	.	.	4G\	.	>	.	.	.	.	.	.	.	.	.	.	.	.	.	.	.	.
.	.	.	.	.	.	.	.	4B-\	.	.	.	.	.	.	.	.	.	.	.	.	4B-\)	.	.	.	.	.	.	.	.	.	.	.	.	.	.	.	.	.	.
.	.	.	.	.	.	.	.	4Bn\)	-us	]	4d\	-us	]	4f\	-us	]]	.	4a-X\	-us	]]	4Bn\	.	]]	.	.	.	.	.	.	.	.	.	.	.	.	.	.	.	.
=29	=29	=29	=29	=29	=29	=29	=29	=29	=29	=29	=29	=29	=29	=29	=29	=29	=29	=29	=29	=29	=29	=29	=29	=29	=29	=29	=29	=29	=29	=29	=29	=29	=29	=29	=29	=29	=29	=29	=29
!	!	!	!	!	!	!	!	!	!	!	!	!	!	!LO:SIC:s=1e-	!	!	!	!	!	!	!	!	!	!	!	!	!	!	!	!	!	!	!	!	!	!	!	!	!
1ryy	1ryy	1ryy	1ryy	1r;	1r;>	1r;	1ryy	1c;>	es	.	1e-;>	es	.	1e;>	es	.	1ryy	1g;>	es	.	1c;>	1ryy	.	1ryy	1ryy	1ryy	1ryy	1r	1r	1r	1r	1r	1r;>	1ryy	1ryy	1r	1r	1ryy	1ryy
*	*	*	*	*	*	*	*	*	*	*	*	*	*	*	*	*	*	*	*Xij	*	*	*	*	*	*	*	*	*	*	*	*	*	*	*	*	*	*	*	*
=30	=30	=30	=30	=30	=30	=30	=30	=30	=30	=30	=30	=30	=30	=30	=30	=30	=30	=30	=30	=30	=30	=30	=30	=30	=30	=30	=30	=30	=30	=30	=30	=30	=30	=30	=30	=30	=30	=30	=30
!	!	!	!	!	!	!	!	!	!	!	!	!	!	!	!	!	!	!	!	!	!	!	!	!	!	!	!	!	!	!	!	!	!	!	!	!	!LO:TX:a:t=3	!	!
!	!	!	!	!LO:TX:b:t=3.	!LO:TX:b:t=3.	!LO:TX:b:t=3.	!	!	!	!	!	!	!	!	!	!	!	!	!	!	!	!	!	!	!	!	!	!LO:TX:b:t=3.	!LO:TX:b:t=3.	!LO:TX:a:t=3.	!LO:TX:b:t=3.	!LO:TX:a:t=3.	!LO:TX:a:t=3	!	!	!LO:TX:b:t=3.	!LO:TX:b:t=3	!	!
1ryy	1ryy	1ryy	1ryy	0r	0r	0r	1ryy	2r	.	.	2.A-\	in	.	(>4f\	in	.	1ryy	(>4a-\	in	.	2r	1ryy	.	1ryy	1ryy	1ryy	1ryy	0r	0r	0r	0r	0r	0r	1ryy	1ryy	0r	0r	1ryy	1ryy
.	.	.	.	.	.	.	.	.	.	.	.	.	.	4g\	.	.	.	4b-\	.	.	.	.	.	.	.	.	.	.	.	.	.	.	.	.	.	.	.	.	.
!	!	!	!	!	!	!	!	!	!	!	!	!	!	!LO:SIC:s=4a-	!	!	!	!	!	!	!	!	!	!	!	!	!	!	!	!	!	!	!	!	!	!	!	!	!
.	.	.	.	.	.	.	.	4r	.	.	.	.	.	4a\	.	.	.	4cc\)	.	.	4r	.	.	.	.	.	.	.	.	.	.	.	.	.	.	.	.	.	.
.	.	.	.	.	.	.	.	8.AA-/	in	.	4c\	ae-	.	4f\)	ae-	.	.	4a-\	ae-	.	8.AA-/	.	.	.	.	.	.	.	.	.	.	.	.	.	.	.	.	.	.
.	.	.	.	.	.	.	.	16AA-/	ae-	.	.	.	.	.	.	.	.	.	.	.	16AA-/	.	.	.	.	.	.	.	.	.	.	.	.	.	.	.	.	.	.
!	!	!	!	!	!	!	!	!	!	!	!	!	!	!LO:LB:g=original	!	!	!	!	!	!	!	!	!	!	!	!	!	!	!	!	!	!	!	!	!	!	!	!	!
!	!	!	!	!	!	!	!	!	!	!	!LO:LB:g=original	!	!	!	!	!	!	!	!	!	!	!	!	!	!	!	!	!	!	!	!	!	!	!	!	!	!	!	!
=31	=31	=31	=31	=31	=31	=31	=31	=31	=31	=31	=31||	=31	=31	=31	=31	=31	=31	=31	=31	=31	=31	=31	=31	=31	=31	=31	=31	=31	=31	=31	=31	=31	=31	=31	=31	=31	=31	=31	=31
!	!	!	!	!	!	!	!	!	!	!	!	!	!	!LO:SIC:s=2e-	!	!	!	!	!	!	!	!	!	!	!	!	!	!	!	!	!	!	!	!	!	!	!	!	!
1ryy	1ryy	1ryy	1ryy	.	.	.	1ryy	1BB-X	-ter-	.	(>2.B-\	-ter-	.	(>2e\	-ter-	.	1ryy	(<2g/	-ter-	.	1BB-X	1ryy	.	1ryy	1ryy	1ryy	1ryy	.	.	.	.	.	.	1ryy	1ryy	.	.	1ryy	1ryy
.	.	.	.	.	.	.	.	.	.	.	.	.	.	2d\)	.	.	.	2f/)	.	.	.	.	.	.	.	.	.	.	.	.	.	.	.	.	.	.	.	.	.
.	.	.	.	.	.	.	.	.	.	.	4A-\)	.	.	.	.	.	.	.	.	.	.	.	.	.	.	.	.	.	.	.	.	.	.	.	.	.	.	.	.
!	!	!	!	!	!	!	!	!	!	!	!	!	!	!	!	!	!	!LO:LB:g=original	!	!	!	!	!	!	!	!	!	!	!	!	!	!	!	!	!	!	!	!	!
=32	=32	=32	=32	=32	=32	=32	=32	=32	=32	=32	=32	=32	=32	=32	=32	=32	=32	=32||	=32	=32	=32	=32	=32	=32	=32	=32	=32	=32	=32	=32	=32	=32	=32	=32	=32	=32	=32	=32	=32
!	!	!	!	!	!	!	!	!	!	!	!	!	!	!LO:SIC:s=1e-	!	!	!	!	!	!LO:DY:a	!	!	!	!	!	!	!	!	!	!	!	!	!	!	!	!	!	!	!
!	!	!	!	!	!	!	!	!	!	!	!	!	!	!	!	!	!	!	!	!LO::HP:a	!	!	!	!	!	!	!	!	!	!	!	!	!	!	!	!	!	!	!
!	!	!	!	!	!	!	!	!	!	!LO:HP:b	!	!	!	!	!	!	!	!	!	!	!	!	!LO:HP:b=2	!	!	!	!	!	!	!	!	!	!	!	!	!	!	!	!
1ryy	1ryy	1ryy	1ryy	1r;	1r;>	1r;	1ryy	1C;>	-num	<[	1G;>	-num	.	1e;>	-num	.	1ryy	1e-;>	-num	<[	1C;>	1ryy	<[	1ryy	1ryy	1ryy	1ryy	1r;>	1r;>	1r;>	1r;>	1r;>	1r;>	1ryy	1ryy	1r;	1r;	1ryy	1ryy
!	!	!	!	!	!	!	!	!	!	!	!	!	!	!	!	!	!	!	!	!LO:HP:a	!	!	!	!	!	!	!	!	!	!	!	!	!	!	!	!	!	!	!
!	!	!	!	!	!	!	!	!	!	!LO:HP:b	!	!	!	!	!	!	!	!	!	!	!	!	!LO:HP:b=2	!	!	!	!	!	!	!	!	!	!	!	!	!	!	!	!
.	.	.	.	.	.	.	.	.	.	>]	.	.	.	.	.	.	.	.	.	>]	.	.	>]	.	.	.	.	.	.	.	.	.	.	.	.	.	.	.	.
!	!	!	!	!	!	!	!	!LO:LB:g=original	!	!	!	!	!	!	!	!	!	!	!	!	!	!	!	!	!	!	!	!	!	!	!	!	!	!	!	!	!	!	!
=33	=33	=33	=33	=33	=33	=33	=33	=33||	=33	=33	=33	=33	=33	=33	=33	=33	=33	=33	=33	=33	=33	=33	=33	=33	=33	=33	=33	=33	=33	=33	=33	=33	=33	=33	=33	=33	=33	=33	=33
!	!	!	!	!	!	!	!	!	!	!	!	!	!	!	!	!	!	!	!	!	!	!	!	!	!	!	!	!	!	!	!	!	!	!	!	!LO:TX:a:t=3.	!	!	!
!	!	!	!	!	!LO:TX:b:t=3.	!LO:TX:b:t=3.	!	!	!	!	!	!	!	!	!	!	!	!	!	!	!	!	!	!	!	!	!	!LO:TX:b:t=3	!LO:TX:a:t=3	!LO:TX:a:t=3	!LO:TX:b:t=3.	!LO:TX:a:t=3.	!LO:TX:a:t=3.	!	!	!LO:TX:b:t=3.	!LO:TX:a:t=3.	!	!
1ryy	1ryy	1ryy	1ryy	1ryy	0r	0r	1ryy	2r	.	.	2.A-\	in	.	4f\	in	.	1ryy	(>4a-\	in	.	2r	1ryy	.	1ryy	1ryy	1ryy	1ryy	0r	0r	0r	0r	0r	0r	1ryy	1ryy	0r	0r	1ryy	1ryy
!	!	!	!	!	!	!	!	!	!	!	!	!	!	!LO:SIC:s=2a-	!	!LO:HP:a	!	!	!	!	!	!	!	!	!	!	!	!	!	!	!	!	!	!	!	!	!	!	!
.	.	.	.	.	.	.	.	.	.	.	.	.	.	2a\	ae-	>	.	2cc\	.	.	.	.	.	.	.	.	.	.	.	.	.	.	.	.	.	.	.	.	.
.	.	.	.	.	.	.	.	4r	.	.	.	.	.	.	.	.	.	.	.	.	4r	.	.	.	.	.	.	.	.	.	.	.	.	.	.	.	.	.	.
.	.	.	.	.	.	.	.	8.AA-/	in	.	4c\	ae-	.	4f\	.	]]	.	4a-\)	ae-	.	8.AA-/	.	.	.	.	.	.	.	.	.	.	.	.	.	.	.	.	.	.
.	.	.	.	.	.	.	.	16AA-/	ae-	.	.	.	.	.	.	.	.	.	.	.	16AA-/	.	.	.	.	.	.	.	.	.	.	.	.	.	.	.	.	.	.
!	!	!	!	!	!	!	!	!	!	!	!	!	!	!	!	!	!	!	!	!	!LO:LB:g=original	!	!	!	!	!	!	!	!	!	!	!	!	!	!	!	!	!	!
=34	=34	=34	=34	=34	=34	=34	=34	=34	=34	=34	=34	=34	=34	=34	=34	=34	=34	=34	=34	=34	=34||	=34||	=34	=34	=34	=34	=34	=34	=34	=34	=34	=34	=34	=34	=34	=34	=34	=34	=34
!	!	!	!	!	!	!	!	!	!	!	!	!	!	!LO:SIC:s=1e-	!	!	!	!	!	!LO:HP:a	!	!	!	!	!	!	!	!	!	!	!	!	!	!	!	!	!	!	!
!	!	!	!	!	!	!	!	!	!	!	!	!	!	!	!	!	!	!	!	!	!	!	!LO:HP:b=2	!	!	!	!	!	!	!	!	!	!	!	!	!	!	!	!
1ryy	1ryy	1ryy	1ryy	1ryy	.	.	1ryy	[>1BB-	-ter	.	[>1B-	-ter	.	1e	-ter	.	1ryy	(<1g	-ter	<	1BB-	1ryy	<[	1ryy	1ryy	1ryy	1ryy	.	.	.	.	.	.	1ryy	1ryy	.	.	1ryy	1ryy
=35	=35	=35	=35	=35	=35	=35	=35	=35	=35	=35	=35	=35	=35	=35	=35	=35	=35	=35	=35	=35	=35	=35	=35	=35	=35	=35	=35	=35	=35	=35	=35	=35	=35	=35	=35	=35	=35	=35	=35
!	!	!	!	!	!LO:TX:b:i:t=subito.	!LO:TX:b:i:t=volti	!	!LO:TX:t=P:problem=ostatnia sylaba zapisana na początku kolejnej części (012_Requiem)	!	!	!LO:TX:t=P:problem=ostatnia sylaba zapisana na początku kolejnej części (012_Requiem)	!	!	!LO:TX:t=P:problem=ostatnia sylaba zapisana na początku kolejnej części (012_Requiem)	!	!	!	!LO:TX:t=P:problem=ostatnia sylaba zapisana na początku kolejnej części (012_Requiem)	!	!	!	!	!	!	!	!	!	!	!	!	!	!	!	!	!	!	!	!	!
!	!	!	!	!	!	!	!	!	!	!	!	!	!	!	!	!	!	!	!	!	!	!	!LO:HP:b=2	!	!	!	!	!	!	!	!	!	!	!	!	!	!	!	!
1ryy	1ryy	1ryy	1ryy	1ryy	1r	1r	1ryy	1BB-]	.	.	1B-]	.	.	1d	.	.	1ryy	(2f/)	.	[	1BB-	1ryy	>]	1ryy	1ryy	1ryy	1ryy	1r	1r	1r	1r	1r	1r	1ryy	1ryy	1r	1r	1ryy	1ryy
!	!	!	!	!	!	!	!	!	!	!	!	!	!	!	!	!	!	!	!	!	!LO:TX:b:i:t=v. Salieri	!	!	!	!	!	!	!	!	!	!	!	!	!	!	!	!	!	!
.	.	.	.	.	.	.	.	.	.	.	.	.	.	.	.	.	.	2r)yy	.	.	.	.	.	.	.	.	.	.	.	.	.	.	.	.	.	.	.	.	.
==	==	==	==	==	==	==	==	==	==	==	==	==	==	==	==	==	==	==	==	==	==	==	==	==	==	==	==	==	==	==	==	==	==	==	==	==	==	==	==
*-	*-	*-	*-	*-	*-	*-	*-	*-	*-	*-	*-	*-	*-	*-	*-	*-	*-	*-	*-	*-	*-	*-	*-	*-	*-	*-	*-	*-	*-	*-	*-	*-	*-	*-	*-	*-	*-	*-	*-
!!!system-decoration: [(s1,s2,s3,s4,s5,s6,s7,s8)][(s9,s10,s11,s12,s13,s14,s15)]s16{(s17,s18)}[(s19,s20,s21,s22,s23,s24)][(s25,s26,s27,s28,s29,s30,s31)]
!!!RDF**kern: > = above
!!!RDF**kern: < = below
!!!RDF**dynam: < = "cres", 'fontstyle="italic"
!!!ENC: Kamil Watkowski
!!!END: 2020-08-25
!!!EED: Antoni Szymański
!!!EEV: 2022-03-02
